X: 36637
T: Shane's Bminor
R: jig
M: 6/8
K: Bminor
|:fBA ~B3|fBc def|~e3 BcB|ABA{B}AFE|
fBA ~B3|fBc def|~e3 efe|dBA B2 e:|
|:eff b2 c'|d'bc' {bc'}baf|~e3 Ace|abc' {ab}afe|
eff b2 c'|d'bc' {bc'}bag|fBB cfd|dBA B2 e:|

